X:1
T:Title
%%score { ( 1 3 ) | ( 2 4 ) }
L:1/8
M:6/8
K:F
V:1 treble nm="Grand Piano"
V:3 treble 
V:2 bass 
V:4 bass 
V:1
 z3 z2[Q:1/4=84] [DF] | [DF]>[^CE][DF] [_EG]>[EG][EG] | [_EG] [DF]2- [DF]2 [DF] | A>AA AGF | %4
 [DB]3- [DB]2 [DF] | [DF]>[^CE][DF] [_EG]>[EG][EG] | [_EG] [DF]2- [DF]2 [DB] | %7
 [CB][B,CG][G,CE] [DEB][CEA]G | F3- F2 F/F/ | F>GA A>Bc | c F2- F2 F | %11
 [DF]>[DG][DA] [FB]>[Fc][Fd] | c3- cd>c | [DB]>[FA][_EG] [DF][^C=E][DF] | G B2- B2 G/G/ | %15
[M:13/16] G>FFFGA3/2 |[M:5/8] [DB]-[DB]- [DB]3 |[M:1/8] [DF]/[DF]/ |[M:3/4] z2 z c3 | B2 B<.B z C | %20
 G>G GG [FA][FB] |[M:15/16] [Ec][EB]/-[EB]/[EG] z G/-G/A-A3/2 |[M:1/8] G/F/ | %23
[M:3/4] [DF]>[^CE] [DF][Fd]- [Fd]/[Fc]/[FB] | [FA]G- G3 G/G/ | G>F FF GA | %26
[M:5/8] [DB]-[DB]- [DB]3 |] %27
V:2
 z3 z2 [B,,B,] | [B,,B,]>[B,,B,][B,,B,] [B,,B,]>[B,,B,][B,,B,] | %2
 [B,,B,] [B,,B,]2- [B,,B,]2 [B,,B,] | [F,C_E]>[F,CE][F,CE] [F,CE][F,B,E][F,A,E] | %4
 [B,,B,]3- [B,,B,]2 [B,,B,] | [B,,B,]>[B,,B,][B,,B,] [B,,B,]>[B,,B,][B,,B,] | %6
 [B,,B,] [B,,B,]2- [B,,B,]2 [B,,F,] | [C,E,]C,C, C,C,[C,B,C] | [F,A,C]3- [F,A,C]2 [F,A,]/[F,A,]/ | %9
 [F,A,]>[F,B,E][F,C_E] [F,CE]>[F,B,D][F,A,E] | [F,A,F] [F,A,_E]2- [F,A,E]2 [F,A,E] | %11
 [B,,B,]>[B,,B,][B,,B,] [D,B,]>[C,A,][B,,B,] | [F,A,F]3- [F,A,F][F,A,F]>[F,A,_E] | %13
 [B,,B,]>[B,,B,][B,,B,] [B,,B,][B,,B,][B,,B,] | [_E,B,_E] [E,G,E]2- [E,G,E]2 [=E,B,^C]/[E,B,C]/ | %15
[M:13/16] [F,B,D]>[F,B,D][F,B,D][F,A,_E][F,B,E][F,CE]3/2 |[M:5/8] [B,,B,]-[B,,B,]- [B,,B,]3 | %17
[M:1/8] [B,,B,]/[B,,B,]/ |[M:3/4] [B,,B,]2 [B,,B,]/[B,,B,]/[K:treble] .[F,A,F]3 | %19
 [G,B,D]2 [G,DG]/[G,DG]/[K:bass] .[D,D]3 | [_E,B,]>[E,B,_E] [E,B,E][E,B,E] [E,C][D,B,] | %21
[M:15/16] z3 [F,A,]3/2- [F,A,]3 |[M:1/8] [F,A,_E]/[F,A,E]/ | %23
[M:3/4] [B,,B,]>[B,,B,] [B,,B,][B,,B,]- [B,,B,]/[C,A,]/[D,B,] | %24
 [_E,B,][E,B,_E]- [E,B,E]3 [=E,B,^C]/[E,B,C]/ | [F,B,D]>[F,B,D] [F,B,D][F,A,_E] [F,B,E][F,CE] | %26
[M:5/8] [B,,B,]-[B,,B,]- [B,,B,]3 |] %27
V:3
 x6 | x6 | x6 | x6 | x6 | x6 | x6 | x6 | x6 | x6 | x6 | x6 | x6 | x6 | x6 |[M:13/16] x13/2 | %16
[M:5/8] x5 |[M:1/8] x |[M:3/4] [Fd]2 [Fd]<.[Fd] z _E | z2 z [^FA]3 | x6 |[M:15/16] z3 F3/2- F3 | %22
[M:1/8] x |[M:3/4] x6 | x6 | x6 |[M:5/8] x5 |] %27
V:4
 x6 | x6 | x6 | x6 | x6 | x6 | x6 | x6 | x6 | x6 | x6 | x6 | x6 | x6 | x6 |[M:13/16] x13/2 | %16
[M:5/8] x5 |[M:1/8] x |[M:3/4] x3[K:treble] x3 | x3[K:bass] x3 | x6 | %21
[M:15/16] [C,G,][C,G,]/-[C,G,]/[C,B,] z B,/-B,/C-C3/2 |[M:1/8] x |[M:3/4] x6 | x6 | x6 | %26
[M:5/8] x5 |] %27

